chrome/icons/copilot.svg

<svg width="16" height="16" viewBox="0 0 16 16" fill="none" xmlns="http://www.w3.org/2000/svg">
<path d="M0 9.47656C0 9.16406 0.0273438 8.83984 0.0820312 8.50391C0.136719 8.16797 0.20573 7.82942 0.289062 7.48828C0.372395 7.14714 0.464844 6.8112 0.566406 6.48047C0.667969 6.14973 0.765625 5.83594 0.859375 5.53906C0.953125 5.25261 1.0612 4.94141 1.18359 4.60547C1.30599 4.26953 1.44661 3.93359 1.60547 3.59766C1.76433 3.26172 1.94531 2.9375 2.14844 2.625C2.35156 2.3125 2.57812 2.03516 2.82812 1.79297C3.07812 1.55078 3.35547 1.35807 3.66016 1.21484C3.96484 1.07162 4.29948 1 4.66406 1H9.82812C10.1354 1 10.4323 1.04557 10.7188 1.13672C11.0052 1.22787 11.2552 1.39323 11.4688 1.63281C11.625 1.80989 11.7461 1.9987 11.832 2.19922C11.918 2.39973 12.0026 2.60938 12.0859 2.82812C12.1432 2.97917 12.2018 3.1302 12.2617 3.28125C12.3216 3.4323 12.4089 3.5677 12.5234 3.6875C12.6432 3.8177 12.7891 3.89973 12.9609 3.93359C13.1328 3.96745 13.3021 3.98958 13.4688 4H13.5C14.3177 4 14.9388 4.21614 15.3633 4.64844C15.7878 5.08073 16 5.70573 16 6.52344C16 6.83594 15.9727 7.16145 15.918 7.5C15.8633 7.83855 15.7942 8.17708 15.7109 8.51562C15.6277 8.85417 15.5352 9.1888 15.4336 9.51953C15.332 9.85027 15.2344 10.1641 15.1406 10.4609C15.0469 10.7474 14.9388 11.0586 14.8164 11.3945C14.694 11.7305 14.5534 12.0664 14.3945 12.4023C14.2357 12.7383 14.0547 13.0625 13.8516 13.375C13.6484 13.6875 13.4219 13.9648 13.1719 14.207C12.9219 14.4492 12.6445 14.6419 12.3398 14.7852C12.0352 14.9284 11.7005 15 11.3359 15H6.17188C5.85417 15 5.57422 14.9609 5.33203 14.8828C5.08984 14.8047 4.8763 14.6888 4.69141 14.5352C4.50652 14.3815 4.34766 14.194 4.21484 13.9727C4.08203 13.7513 3.96355 13.4974 3.85938 13.2109C3.80208 13.0599 3.73828 12.9023 3.66797 12.7383C3.59766 12.5742 3.50781 12.4323 3.39844 12.3125C3.27864 12.1823 3.14583 12.1003 3 12.0664C2.85417 12.0325 2.69792 12.0104 2.53125 12H2.5C1.6823 12 1.0612 11.7839 0.636719 11.3516C0.212239 10.9193 0 10.2943 0 9.47656ZM4.67188 2C4.41145 2 4.16927 2.06641 3.94531 2.19922C3.72136 2.33203 3.51433 2.50781 3.32422 2.72656C3.13411 2.94531 2.96094 3.19141 2.80469 3.46484C2.64844 3.73828 2.50781 4.01823 2.38281 4.30469C2.25781 4.59114 2.14714 4.86848 2.05078 5.13672C1.95442 5.40495 1.875 5.64062 1.8125 5.84375C1.72395 6.10938 1.63281 6.39583 1.53906 6.70312C1.44531 7.01042 1.35807 7.32161 1.27734 7.63672C1.19661 7.95183 1.13021 8.26562 1.07812 8.57812C1.02604 8.89062 1 9.1875 1 9.46875C1 10 1.11328 10.388 1.33984 10.6328C1.56641 10.8776 1.94792 11 2.48438 11H3.75781C3.96094 11 4.15364 10.9675 4.33594 10.9023C4.51823 10.8372 4.68489 10.7474 4.83594 10.6328C4.98698 10.5182 5.11848 10.3802 5.23047 10.2188C5.34245 10.0573 5.42969 9.88281 5.49219 9.69531C5.59114 9.39323 5.68359 9.09245 5.76953 8.79297C5.85547 8.49348 5.94531 8.19011 6.03906 7.88281C6.22136 7.27344 6.40495 6.66797 6.58984 6.06641C6.77473 5.46484 6.96094 4.85938 7.14844 4.25C7.26823 3.8698 7.39062 3.48567 7.51562 3.09766C7.64062 2.70964 7.80469 2.34375 8.00781 2H4.67188ZM8.20312 4.22656C8.5625 4.07552 8.93489 4 9.32031 4H11.5156C11.4219 3.84895 11.3464 3.69531 11.2891 3.53906C11.2318 3.38281 11.1771 3.23047 11.125 3.08203C11.0729 2.93359 11.0169 2.79427 10.957 2.66406C10.8971 2.53386 10.819 2.41927 10.7227 2.32031C10.6263 2.22136 10.5078 2.14323 10.3672 2.08594C10.2266 2.02864 10.0469 2 9.82812 2C9.66145 2 9.5052 2.02344 9.35938 2.07031C9.21355 2.11719 9.08855 2.20833 8.98438 2.34375C8.89583 2.46355 8.8138 2.60156 8.73828 2.75781C8.66277 2.91406 8.59245 3.07812 8.52734 3.25C8.46223 3.42188 8.40364 3.59245 8.35156 3.76172C8.29948 3.93098 8.25 4.08594 8.20312 4.22656ZM5.89062 11H6.67969C6.88281 11 7.07683 10.9688 7.26172 10.9062C7.44661 10.8438 7.61719 10.7552 7.77344 10.6406C7.92969 10.526 8.06511 10.3893 8.17969 10.2305C8.29427 10.0716 8.3802 9.89583 8.4375 9.70312L8.89062 8.21094C9 7.84636 9.10938 7.48177 9.21875 7.11719C9.32812 6.75261 9.44011 6.38802 9.55469 6.02344C9.61198 5.83594 9.6862 5.65625 9.77734 5.48438C9.86848 5.3125 9.97917 5.15105 10.1094 5H9.32031C9.11719 5 8.92317 5.03125 8.73828 5.09375C8.55339 5.15625 8.38281 5.2448 8.22656 5.35938C8.07031 5.47395 7.93489 5.61067 7.82031 5.76953C7.70573 5.92839 7.6198 6.10417 7.5625 6.29688C7.48438 6.54688 7.40755 6.79688 7.33203 7.04688C7.25652 7.29688 7.1823 7.54688 7.10938 7.79688C7 8.16145 6.89192 8.52605 6.78516 8.89062C6.67839 9.2552 6.56511 9.6198 6.44531 9.98438C6.38802 10.1719 6.3138 10.3503 6.22266 10.5195C6.13152 10.6888 6.02083 10.849 5.89062 11ZM12.25 5C12.0469 5 11.8529 5.03255 11.668 5.09766C11.4831 5.16277 11.3164 5.25391 11.168 5.37109C11.0195 5.48828 10.8893 5.6263 10.7773 5.78516C10.6654 5.94402 10.5781 6.1198 10.5156 6.3125C10.224 7.21875 9.94402 8.1237 9.67578 9.02734C9.40755 9.93098 9.13281 10.8385 8.85156 11.75C8.73177 12.1354 8.60938 12.5195 8.48438 12.9023C8.35938 13.2852 8.19531 13.651 7.99219 14H11.3281C11.5885 14 11.8307 13.9336 12.0547 13.8008C12.2786 13.668 12.4857 13.4922 12.6758 13.2734C12.8659 13.0547 13.0391 12.8086 13.1953 12.5352C13.3516 12.2617 13.4922 11.9818 13.6172 11.6953C13.7422 11.4089 13.8516 11.1315 13.9453 10.8633C14.0391 10.595 14.1198 10.3594 14.1875 10.1562C14.2708 9.89062 14.3607 9.60417 14.457 9.29688C14.5534 8.98958 14.6419 8.67839 14.7227 8.36328C14.8034 8.04817 14.8698 7.73438 14.9219 7.42188C14.974 7.10938 15 6.8125 15 6.53125C15 6 14.8867 5.61198 14.6602 5.36719C14.4336 5.12239 14.0521 5 13.5156 5H12.25ZM7.79688 11.7734C7.4375 11.9245 7.06511 12 6.67969 12H4.40625C4.4948 12.1458 4.57031 12.2969 4.63281 12.4531C4.69531 12.6094 4.75391 12.7617 4.80859 12.9102C4.86328 13.0586 4.92448 13.1992 4.99219 13.332C5.05989 13.4648 5.14453 13.5807 5.24609 13.6797C5.34766 13.7786 5.47136 13.8568 5.61719 13.9141C5.76302 13.9714 5.94792 14 6.17188 14C6.33333 14 6.48958 13.9779 6.64062 13.9336C6.79167 13.8893 6.91927 13.7995 7.02344 13.6641C7.10156 13.5651 7.17839 13.4349 7.25391 13.2734C7.32942 13.112 7.40105 12.9414 7.46875 12.7617C7.53645 12.582 7.59895 12.4036 7.65625 12.2266C7.71355 12.0495 7.76042 11.8984 7.79688 11.7734Z" fill="context-fill" fill-opacity="context-fill-opacity"/>
</svg>

<svg xmlns="http://www.w3.org/2000/svg" width="16" height="16" fill="none" viewBox="0 0 16 16"><path fill="context-fill" fill-opacity="context-fill-opacity" d="M0 9.477q0-.47.082-.973Q.164 8 .289 7.488q.125-.51.277-1.008l.293-.94q.14-.43.325-.935.184-.503.421-1.007.24-.504.543-.973.306-.468.68-.832t.832-.578A2.3 2.3 0 0 1 4.664 1h5.164q.46 0 .89.137.43.135.75.496.235.266.364.566t.254.63q.086.225.176.452t.261.406q.18.196.438.247t.508.066h.031q1.227 0 1.863.648.637.65.637 1.875 0 .469-.082.977t-.207 1.016q-.125.507-.277 1.004l-.293.94q-.14.431-.325.934a12 12 0 0 1-.421 1.008 8 8 0 0 1-.543.973 4.8 4.8 0 0 1-.68.832q-.375.363-.832.578a2.3 2.3 0 0 1-1.004.215H6.172q-.477 0-.84-.117a1.9 1.9 0 0 1-.64-.348 2.2 2.2 0 0 1-.477-.562 4.4 4.4 0 0 1-.356-.762 12 12 0 0 0-.191-.473 1.5 1.5 0 0 0-.27-.425.8.8 0 0 0-.398-.247A3 3 0 0 0 2.531 12H2.5q-1.227 0-1.863-.648Q0 10.702 0 9.477M4.672 2a1.4 1.4 0 0 0-.727.2 2.6 2.6 0 0 0-.62.527q-.285.327-.52.738a9 9 0 0 0-.422.84q-.188.429-.332.832t-.239.707q-.133.398-.273.86a21 21 0 0 0-.262.933q-.12.473-.199.941-.078.47-.078.89 0 .798.34 1.165T2.484 11h1.274q.305 0 .578-.098t.5-.27.394-.413q.169-.243.262-.524.15-.453.278-.902.127-.45.27-.91.272-.914.55-1.817l.558-1.816q.18-.57.368-1.152T8.008 2zm3.531 2.227Q8.743 4 9.32 4h2.196a2.5 2.5 0 0 1-.227-.46l-.164-.458a5 5 0 0 0-.168-.418 1.2 1.2 0 0 0-.234-.344 1 1 0 0 0-.356-.234A1.4 1.4 0 0 0 9.828 2q-.25 0-.469.07a.77.77 0 0 0-.375.274q-.132.18-.246.414t-.21.492a9 9 0 0 0-.176.512q-.079.253-.149.465M5.891 11h.789q.305 0 .582-.094a1.87 1.87 0 0 0 .918-.676q.171-.237.258-.527l.453-1.492.328-1.094q.164-.546.336-1.094a3 3 0 0 1 .222-.539A2.6 2.6 0 0 1 10.11 5H9.32q-.305 0-.582.094a1.88 1.88 0 0 0-.918.676q-.171.237-.258.527a83 83 0 0 0-.453 1.5q-.163.546-.324 1.094-.16.547-.34 1.093a3 3 0 0 1-.222.536 2.7 2.7 0 0 1-.332.48m6.359-6a1.74 1.74 0 0 0-1.082.371 1.97 1.97 0 0 0-.652.941q-.438 1.36-.84 2.715-.402 1.356-.824 2.723-.18.578-.368 1.152-.188.575-.492 1.098h3.336a1.4 1.4 0 0 0 .727-.2q.335-.198.62-.527.286-.327.52-.738.235-.41.422-.84.188-.429.328-.832t.242-.707l.27-.86q.144-.46.266-.933.12-.473.199-.941.078-.47.078-.89 0-.798-.34-1.165T13.516 5zm-4.453 6.773q-.54.228-1.117.227H4.406q.133.219.227.453.093.235.176.457.081.224.183.422.102.2.254.348t.371.234q.218.086.555.086.242 0 .469-.066a.74.74 0 0 0 .382-.27q.118-.15.23-.39.114-.243.216-.512.101-.27.187-.535.087-.267.14-.454"/></svg>
